X: 31458
T: Paddy Taylor's
R: jig
M: 6/8
K: Dmajor
B|A3 gfg|aba efg|f3 ged|cAG EFG|
A3 gfg|aba efg|fed =cAG|ABc d2:|
g|fed edc|ded cAG|ABA D3|fed ecA|
fed edc|ded cde|fed =cAG|ABc d2:|

